; generated by Slic3r 1.2.9 on 2016-02-10 at 09:49:42

; external perimeters extrusion width = 0.50mm
; perimeters extrusion width = 0.72mm
; infill extrusion width = 0.72mm
; solid infill extrusion width = 0.72mm
; top infill extrusion width = 0.72mm

M107
M104 S210 ; set temperature
G28 ; home all axes
G1 Z5 F5000 ; lift nozzle

M109 S210 ; wait for temperature to be reached
G21 ; set units to millimeters
G90 ; use absolute coordinates
M82 ; use absolute distances for extrusion
G92 E0
G1 Z0.500 F7800.000
G1 E-2.00000 F2400.00000
G92 E0
G1 X84.810 Y82.210 F7800.000
G1 E2.00000 F2400.00000
G1 X86.687 Y80.812 E2.05319 F1800.000
G1 X88.923 Y80.123 E2.10637
G1 X91.685 Y80.328 E2.16934
G1 X109.966 Y85.511 E2.60130 F1800.000
G1 X111.469 Y86.137 E2.63830
G1 X114.499 Y87.844 E2.71737
G1 X116.240 Y89.239 E2.76806
G1 X116.851 Y89.947 E2.78932
G1 X118.515 Y92.107 E2.85131
G1 X119.003 Y92.829 E2.87112
G1 X119.369 Y93.512 E2.88873
G1 X119.653 Y94.125 E2.90409
G1 X119.880 Y94.687 E2.91787
G1 X120.069 Y95.222 E2.93077
G1 X120.389 Y96.264 E2.95556
G1 X120.534 Y96.840 E2.96906
G1 X120.722 Y97.816 E2.99165
G1 X120.819 Y98.485 E3.00701
G1 X120.917 Y99.505 E3.03032
G1 X120.948 Y100.539 E3.05381
G1 X120.940 Y101.267 E3.07038
G1 X120.894 Y102.123 E3.08985
G1 X120.749 Y103.370 E3.11840
G1 X120.528 Y104.514 E3.14488
G1 X119.062 Y111.324 E3.30324
G1 X118.825 Y112.187 E3.32358
G1 X118.308 Y113.435 E3.35429
G1 X118.154 Y113.723 E3.36172
G1 X117.403 Y114.847 E3.39244
G1 X117.196 Y115.099 E3.39986
G1 X116.240 Y116.054 E3.43057
G1 X115.988 Y116.262 E3.43800
G1 X114.864 Y117.012 E3.46872
G1 X114.576 Y117.166 E3.47614
G1 X113.328 Y117.683 E3.50685
G1 X113.015 Y117.778 E3.51428
G1 X105.218 Y119.671 E3.69667
G1 X103.821 Y119.859 E3.72872
G1 X101.137 Y119.931 E3.78977
G1 X100.232 Y119.903 E3.81035
G1 X99.527 Y119.849 E3.82642
G1 X98.992 Y119.782 E3.83868
G1 X97.979 Y119.606 E3.86204
G1 X95.693 Y119.113 E3.91522
G1 X94.658 Y118.803 E3.93977
G1 X93.494 Y118.352 E3.96815
G1 X92.660 Y117.998 E3.98874
G1 X91.890 Y117.638 E4.00807
G1 X90.206 Y116.804 E4.05078
G1 X88.277 Y115.384 E4.10525
G1 X84.947 Y111.891 E4.21495
G1 X84.303 Y111.175 E4.23683
G1 X83.587 Y110.273 E4.26302
G1 X82.902 Y109.312 E4.28985
G1 X82.177 Y108.141 E4.32114
G1 X81.669 Y107.216 E4.34513
G1 X81.132 Y106.124 E4.37281
G1 X80.782 Y105.308 E4.39298
G1 X80.338 Y104.121 E4.42179
G1 X80.196 Y103.692 E4.43207
G1 X79.810 Y102.344 E4.46394
G1 X79.575 Y101.320 E4.48782
G1 X79.375 Y100.262 E4.51230
G1 X79.189 Y98.967 E4.54203
G1 X79.142 Y98.511 E4.55247
G1 X79.063 Y97.220 E4.58186
G1 X79.060 Y95.945 E4.61086
G1 X79.096 Y94.960 E4.63327
G1 X79.150 Y94.273 E4.64893
G1 X79.289 Y93.046 E4.67698
G1 X79.444 Y92.143 E4.69783
G1 X79.652 Y91.194 E4.71991
G1 X80.096 Y89.656 E4.75630
G1 X80.246 Y89.212 E4.76695
G1 X80.609 Y88.278 E4.78972
G1 X81.051 Y87.302 E4.81409
G1 X81.464 Y86.512 E4.83436
G1 X81.811 Y85.890 E4.85055
G1 X82.141 Y85.359 E4.86475
G1 X82.474 Y84.875 E4.87811
G1 X83.062 Y84.106 E4.90010
G1 X83.377 Y83.735 E4.91117
G1 X84.759 Y82.264 E4.95705
G1 E2.95705 F2400.00000
G92 E0
G1 X111.889 Y97.873 F7800.000
G1 E2.00000 F2400.00000
G1 X112.411 Y97.850 E2.01189 F1800.000
G1 X112.581 Y97.634 E2.01813
G1 X113.143 Y97.834 E2.03168
G1 X113.298 Y98.352 E2.04398
G1 X113.408 Y98.889 E2.05644
G1 X113.501 Y99.528 E2.07112
G1 X113.548 Y100.102 E2.08421
G1 X113.548 Y101.129 E2.10755
G1 X113.475 Y101.992 E2.12723
G1 X113.424 Y102.370 E2.13590
G1 X113.318 Y102.876 E2.14766
G1 X113.039 Y102.859 E2.15401
G1 X112.931 Y103.597 E2.17096
G1 X112.943 Y103.930 E2.17855
G1 X113.003 Y104.096 E2.18255
G1 X112.841 Y104.306 E2.18859
G1 X112.452 Y104.532 E2.19880
G1 X112.160 Y104.810 E2.20797
G1 X111.791 Y105.864 E2.23336
G1 X111.624 Y106.233 E2.24258
G1 X110.488 Y108.456 E2.29932
G1 X110.273 Y108.517 E2.30439
G1 X110.055 Y108.633 E2.31002
G1 X109.763 Y108.925 E2.31939
G1 X109.597 Y109.332 E2.32940
G1 X109.597 Y109.606 E2.33562
G1 X108.645 Y110.274 E2.36206
G1 X108.444 Y110.382 E2.36723
G1 X108.106 Y110.617 E2.37661
G1 X107.821 Y110.902 E2.38576
G1 X106.270 Y111.529 E2.42380
G1 X105.253 Y111.880 E2.44826
G1 X104.205 Y112.152 E2.47287
G1 X102.505 Y112.361 E2.51180
G1 X102.592 Y112.475 E2.51504
G1 X101.289 Y112.540 E2.54470
G1 X100.544 Y112.517 E2.56163
G1 X100.208 Y112.488 E2.56931
G1 X99.934 Y112.414 E2.57576
G1 X99.606 Y112.254 E2.58405
G1 X99.317 Y112.312 E2.59076
G1 X99.104 Y112.248 E2.59580
G1 X98.066 Y111.828 E2.62125
G1 X97.668 Y111.711 E2.63069
G1 X97.309 Y111.687 E2.63886
G1 X97.011 Y111.787 E2.64601
G1 X96.171 Y111.461 E2.66649
G1 X95.597 Y111.214 E2.68071
G1 X93.664 Y110.266 E2.72965
G1 X93.631 Y110.179 E2.73177
G1 X93.400 Y109.894 E2.74009
G1 X92.177 Y108.649 E2.77978
G1 X92.130 Y108.653 E2.78084
G1 X90.301 Y106.793 E2.84015
G1 X89.829 Y106.265 E2.85624
G1 X89.460 Y105.783 E2.87005
G1 X88.953 Y105.065 E2.89002
G1 X88.274 Y103.896 E2.92075
G1 X87.892 Y103.131 E2.94019
G1 X87.684 Y102.659 E2.95191
G1 X87.284 Y101.589 E2.97790
G1 X86.999 Y100.621 E3.00083
G1 X86.794 Y99.729 E3.02163
G1 X86.681 Y99.128 E3.03554
G1 X86.517 Y97.991 E3.06165
G1 X86.444 Y96.805 E3.08866
G1 X86.455 Y96.195 E3.10253
G1 X86.949 Y96.165 E3.11378
G1 X87.175 Y97.773 E3.15069
G1 X87.393 Y98.879 E3.17631
G1 X87.605 Y99.178 E3.18465
G1 X87.635 Y99.429 E3.19039
G1 X87.826 Y100.067 E3.20553
G1 X88.031 Y100.060 E3.21018
G1 X88.168 Y100.642 E3.22377
G1 X88.469 Y101.467 E3.24374
G1 X88.881 Y101.406 E3.25320
G1 X89.011 Y101.967 E3.26630
G1 X88.822 Y102.176 E3.27270
G1 X88.698 Y102.479 E3.28014
G1 X88.671 Y102.788 E3.28719
G1 X88.777 Y103.270 E3.29841
G1 X88.908 Y103.605 E3.30658
G1 X89.453 Y104.759 E3.33559
G1 X89.491 Y104.721 E3.33682
G1 X90.142 Y105.284 E3.35639
G1 X90.202 Y105.543 E3.36244
G1 X90.428 Y105.951 E3.37304
G1 X90.845 Y106.552 E3.38966
G1 X91.802 Y107.474 E3.41989
G1 X92.330 Y107.943 E3.43592
G1 X93.464 Y108.847 E3.46889
G1 X94.108 Y109.388 E3.48801
G1 X94.379 Y109.581 E3.49558
G1 X94.669 Y109.730 E3.50299
G1 X94.951 Y109.835 E3.50984
G1 X96.277 Y110.247 E3.54138
G1 X95.970 Y110.641 E3.55275
G1 X97.689 Y110.868 E3.59219
G1 X98.959 Y110.953 E3.62111
G1 X99.600 Y110.953 E3.63570
G1 X100.656 Y110.888 E3.65974
G1 X101.453 Y110.758 E3.67809
G1 X101.869 Y110.629 E3.68801
G1 X102.193 Y110.474 E3.69617
G1 X102.223 Y110.585 E3.69878
G1 X102.991 Y110.553 E3.71626
G1 X103.356 Y110.490 E3.72467
G1 X103.750 Y110.368 E3.73406
G1 X104.063 Y110.216 E3.74198
G1 X104.319 Y110.058 E3.74880
G1 X104.775 Y109.696 E3.76204
G1 X104.874 Y109.881 E3.76681
G1 X105.512 Y109.659 E3.78216
G1 X106.452 Y109.397 E3.80435
G1 X106.937 Y109.166 E3.81656
G1 X107.798 Y108.636 E3.83955
G1 X107.718 Y108.477 E3.84360
G1 X108.153 Y108.190 E3.85546
G1 X108.570 Y107.842 E3.86780
G1 X109.413 Y106.993 E3.89499
G1 X109.875 Y106.425 E3.91165
G1 X110.240 Y105.905 E3.92608
G1 X110.517 Y105.451 E3.93817
G1 X110.921 Y104.694 E3.95768
G1 X111.174 Y104.084 E3.97269
G1 X111.304 Y103.618 E3.98368
G1 X111.431 Y102.946 E3.99922
G1 X111.507 Y102.222 E4.01579
G1 X111.509 Y101.410 E4.03425
G1 X111.484 Y100.799 E4.04814
G1 X111.409 Y100.167 E4.06261
G1 X111.264 Y99.330 E4.08193
G1 X111.025 Y98.528 E4.10096
G1 X110.745 Y97.774 E4.11922
G1 X110.374 Y97.042 E4.13787
G1 X110.005 Y96.467 E4.15342
G1 X109.836 Y96.273 E4.15927
G1 X109.913 Y96.180 E4.16201
G1 X108.650 Y94.867 E4.20344
G1 X107.937 Y94.180 E4.22594
G1 X107.675 Y93.961 E4.23370
G1 X108.205 Y93.481 E4.24997
G1 X108.300 Y93.571 E4.25294
G1 X108.525 Y93.408 E4.25927
G1 X109.116 Y93.782 E4.27516
G1 X109.323 Y93.866 E4.28026
G1 X109.405 Y94.184 E4.28773
G1 X109.595 Y94.494 E4.29599
G1 X109.934 Y94.887 E4.30780
G1 X110.156 Y95.008 E4.31354
G1 X110.255 Y95.297 E4.32049
G1 X110.603 Y95.984 E4.33798
G1 X110.950 Y95.868 E4.34629
G1 X111.222 Y96.285 E4.35761
G1 X111.222 Y96.965 E4.37306
G1 X111.549 Y97.525 E4.38781
G1 X111.836 Y97.819 E4.39715
G1 X112.030 Y98.352 F7800.000
G1 X107.661 Y93.300 F7800.000
G1 X106.876 Y92.938 E4.41679 F1800.000
G1 X105.853 Y92.518 E4.44194
G1 X105.142 Y92.589 E4.45816
G1 X104.690 Y92.342 E4.46987
G1 X104.357 Y92.190 E4.47820
G1 X103.222 Y92.237 E4.50403
G1 X102.610 Y92.291 E4.51798
G1 X101.731 Y92.428 E4.53821
G1 X101.353 Y92.606 E4.54772
G1 X100.703 Y92.759 E4.56288
G1 X100.287 Y92.942 E4.57323
G1 X99.956 Y93.119 E4.58175
G1 X99.697 Y93.325 E4.58928
G1 X99.248 Y93.594 E4.60118
G1 X98.915 Y93.845 E4.61065
G1 X98.494 Y94.237 E4.62373
G1 X97.933 Y94.887 E4.64325
G1 X97.470 Y95.643 E4.66341
G1 X97.169 Y96.301 E4.67985
G1 X97.040 Y97.060 E4.69734
G1 X96.993 Y97.482 E4.70701
G1 X96.961 Y98.026 E4.71938
G1 X96.957 Y98.681 E4.73428
G1 X97.069 Y99.542 E4.75401
G1 X97.261 Y100.237 E4.77040
G1 X97.507 Y100.817 E4.78472
G1 X97.705 Y101.170 E4.79393
G1 X97.942 Y101.510 E4.80334
G1 X98.156 Y101.784 E4.81125
G1 X98.282 Y101.914 E4.81537
G1 X98.507 Y102.256 E4.82467
G1 X98.787 Y102.526 E4.83351
G1 X99.231 Y102.881 E4.84644
G1 X100.265 Y103.374 E4.87249
G1 X100.783 Y103.542 E4.88487
G1 X101.041 Y103.595 E4.89086
G1 X101.477 Y103.634 E4.90079
G1 X101.909 Y103.708 E4.91077
G1 X102.231 Y103.725 E4.91808
G1 X102.744 Y103.692 E4.92977
G1 X103.279 Y103.587 E4.94218
G1 X103.662 Y103.473 E4.95126
G1 X104.144 Y103.255 E4.96327
G1 X104.496 Y103.050 E4.97255
G1 X104.905 Y102.760 E4.98394
G1 X105.421 Y102.257 E5.00032
G1 X105.644 Y101.987 E5.00827
G1 X105.881 Y101.618 E5.01826
G1 X106.100 Y101.191 E5.02917
G1 E3.02917 F2400.00000
G92 E0
G1 X110.656 Y106.182 F7800.000
G1 X110.545 Y106.730 F7800.000
G1 X110.458 Y106.875 F7800.000
G1 X110.286 Y107.141 F7800.000
G1 X110.527 Y107.263 F7800.000
G1 X111.113 Y108.332 F7800.000
G1 E2.00000 F2400.00000
G1 X111.636 Y108.916 E2.01783 F1800.000
G1 X111.736 Y109.115 E2.02289
G1 X111.806 Y109.326 E2.02795
G1 X111.822 Y109.548 E2.03301
G1 X111.806 Y109.765 E2.03796
G1 X111.723 Y110.009 E2.04381
G1 X111.635 Y110.180 E2.04819
G1 X111.489 Y110.348 E2.05324
G1 X111.325 Y110.490 E2.05818
G1 X111.094 Y110.602 E2.06402
G1 X110.911 Y110.662 E2.06839
G1 X110.690 Y110.677 E2.07344
G1 X110.468 Y110.661 E2.07848
G1 X110.258 Y110.590 E2.08352
G1 X109.546 Y110.252 E2.10144
G1 E0.10144 F2400.00000
G92 E0
G1 X104.362 Y111.605 F7800.000
G1 X95.075 Y110.405 F7800.000
G1 X86.817 Y95.672 F7800.000
G1 E2.00000 F2400.00000
G1 X86.808 Y94.260 E2.03210 F1800.000
G1 X86.880 Y93.563 E2.04803
G1 X86.813 Y93.084 E2.05901
G1 X86.879 Y92.813 E2.06537
G1 X87.004 Y92.504 E2.07296
G1 X87.186 Y91.789 E2.08973
G1 X87.563 Y90.827 E2.11319
G1 X87.656 Y90.394 E2.12327
G1 X87.801 Y89.954 E2.13380
G1 X88.004 Y89.470 E2.14573
G1 X88.219 Y89.094 E2.15559
G1 E0.15559 F2400.00000
G92 E0
G1 X88.359 Y101.989 F7800.000
G1 X95.437 Y110.512 F7800.000
G1 X98.204 Y111.375 F7800.000
G1 E2.00000 F2400.00000
G1 X99.349 Y111.623 E2.02662 F1800.000
G1 X99.823 Y111.576 E2.03746
G1 X99.816 Y111.611 F7800.000
G1 X100.347 Y111.703 E2.06339 F1800.000
G1 X100.729 Y111.704 E2.08181
G1 X101.418 Y111.660 E2.11510
G1 X102.135 Y111.494 E2.15058
G1 X103.055 Y111.419 E2.19507
G1 X103.588 Y111.341 E2.22104
G1 X104.125 Y111.216 E2.24757
G1 X104.691 Y110.998 E2.27683
G1 X106.746 Y110.306 E2.38131
G1 X107.275 Y110.078 E2.40912
G1 X107.545 Y109.880 E2.42524
G1 X108.707 Y109.124 E2.49206
G1 X108.839 Y108.795 E2.50915
G1 X109.034 Y108.529 E2.52501
G1 X109.532 Y108.017 E2.55946
G1 X109.880 Y107.748 E2.58068
G1 X110.598 Y106.669 E2.64315
G1 X110.591 Y106.664 F7800.000
G1 X111.099 Y105.776 E2.66641 F1800.000
G1 X111.465 Y104.960 E2.68674
G1 X111.637 Y104.513 E2.69763
G1 X111.805 Y104.254 E2.70465
G1 X112.076 Y104.274 F7800.000
G1 X112.127 Y103.586 E2.73787 F1800.000
G1 X112.313 Y102.275 E2.80169
G1 X112.495 Y101.873 E2.82295
G1 X112.523 Y101.077 E2.86135
G1 X112.482 Y100.155 E2.90585
G1 X112.421 Y99.651 E2.93028
G1 X112.330 Y99.078 E2.95825
G1 X112.137 Y98.309 E2.99650
M104 S200 ; set temperature
G1 Z0.800 F7800.000
G1 X110.370 Y108.749 F7800.000
G1 X110.579 Y108.695 E2.99794 F900.000
G1 X110.865 Y108.699 E2.99984
G1 X111.172 Y108.826 E3.00205
G1 X111.412 Y109.065 E3.00431
G1 X111.542 Y109.378 E3.00656
G1 X111.540 Y109.718 E3.00882
G1 X111.412 Y110.026 E3.01104
G1 X111.174 Y110.264 E3.01328
G1 X110.863 Y110.393 E3.01553
G1 X110.525 Y110.393 E3.01777
G1 X110.212 Y110.262 E3.02003
G1 X109.976 Y110.025 E3.02226
G1 X109.847 Y109.714 E3.02450
G1 X109.847 Y109.381 E3.02671
G1 X109.976 Y109.066 E3.02898
G1 X110.205 Y108.836 E3.03114
G1 X110.304 Y108.784 E3.03189
G1 X110.411 Y108.536 F7800.000
G1 X112.787 Y102.548 F7800.000
G1 X112.635 Y103.581 E3.04232 F3600.000
G1 X112.654 Y104.074 E3.04726
G1 X112.274 Y104.294 E3.05164
G1 X111.905 Y104.645 E3.05674
G1 X111.517 Y105.754 E3.06849
G1 X111.358 Y106.105 E3.07235
G1 X110.283 Y108.208 E3.09596
G1 X110.171 Y108.237 E3.09712
G1 X109.877 Y108.394 E3.10045
G1 X109.513 Y108.758 E3.10560
G1 X109.301 Y109.275 E3.11118
G1 X109.302 Y109.453 E3.11296
G1 X108.489 Y110.022 E3.12288
G1 X108.290 Y110.130 E3.12515
G1 X107.916 Y110.390 E3.12971
G1 X107.655 Y110.651 E3.13340
G1 X106.166 Y111.252 E3.14945
G1 X105.167 Y111.597 E3.16002
G1 X104.149 Y111.862 E3.17054
G1 X101.957 Y112.132 E3.19263
G1 X102.015 Y112.208 E3.19359
G1 X101.286 Y112.245 E3.20090
G1 X100.259 Y112.196 E3.21118
G1 X100.038 Y112.136 E3.21347
G1 X99.646 Y111.945 E3.21783
G1 X99.331 Y112.008 E3.22105
G1 X99.202 Y111.969 E3.22239
G1 X98.098 Y111.523 E3.23430
G1 X98.173 Y111.196 E3.23765
G1 X98.949 Y111.249 E3.24543
G1 X99.610 Y111.249 E3.25205
G1 X100.713 Y111.178 E3.26309
G1 X101.521 Y111.046 E3.27128
G1 X102.010 Y110.889 E3.27642
G1 X103.022 Y110.847 E3.28655
G1 X103.425 Y110.778 E3.29063
G1 X103.859 Y110.643 E3.29518
G1 X104.206 Y110.475 E3.29904
G1 X104.489 Y110.300 E3.30236
G1 X104.681 Y110.147 E3.30482
G1 X104.732 Y110.242 E3.30590
G1 X105.600 Y109.941 E3.31509
G1 X106.556 Y109.674 E3.32501
G1 X107.078 Y109.426 E3.33079
G1 X108.184 Y108.745 E3.34378
G1 X108.100 Y108.579 E3.34564
G1 X108.330 Y108.427 E3.34840
G1 X108.769 Y108.059 E3.35413
G1 X109.633 Y107.191 E3.36637
G1 X110.111 Y106.603 E3.37395
G1 X110.487 Y106.067 E3.38050
G1 X110.773 Y105.597 E3.38600
G1 X111.188 Y104.820 E3.39481
G1 X111.453 Y104.181 E3.40173
G1 X111.592 Y103.686 E3.40687
G1 X111.723 Y102.990 E3.41395
G1 X111.802 Y102.236 E3.42154
G1 X111.804 Y101.404 E3.42985
G1 X111.779 Y100.776 E3.43614
G1 X111.701 Y100.124 E3.44270
G1 X111.551 Y99.262 E3.45145
G1 X111.305 Y98.434 E3.46009
G1 X111.130 Y97.964 E3.46510
G1 X111.399 Y97.794 E3.46828
G1 X111.770 Y98.173 E3.47359
G1 X112.559 Y98.139 E3.48148
G1 X112.826 Y97.801 E3.48579
G1 X113.011 Y98.424 E3.49229
G1 X113.117 Y98.940 E3.49756
G1 X113.207 Y99.562 E3.50384
G1 X113.253 Y100.117 E3.50940
G1 X113.261 Y100.641 E3.51464
G1 X113.254 Y101.114 E3.51938
G1 X113.133 Y102.320 E3.53149
G1 X113.082 Y102.566 E3.53401
G1 X112.861 Y102.553 E3.53622
G1 X110.927 Y96.835 F7800.000
G1 X110.644 Y96.917 E3.53916 F900.000
G1 X110.308 Y96.393 E3.54539
G1 X110.927 Y96.187 E3.55191
G1 X110.927 Y96.760 E3.55764
G1 X109.359 Y94.672 F7800.000
G1 X109.080 Y94.888 E3.56116 F900.000
G1 X108.191 Y94.015 E3.57362
G1 X108.536 Y93.764 E3.57789
G1 X108.980 Y94.045 E3.58314
G1 X109.075 Y94.083 E3.58416
G1 X109.130 Y94.301 E3.58641
G1 X109.319 Y94.608 E3.59001
G1 E1.59001 F2400.00000
G92 E0
G1 X104.617 Y110.461 F7800.000
G1 X103.448 Y111.360 F7800.000
G1 X101.211 Y111.674 F7800.000
G1 X100.752 Y111.703 F7800.000
G1 X100.347 Y111.701 F7800.000
G1 X100.346 Y111.701 F7800.000
G1 X100.327 Y111.406 F7800.000
G1 X95.782 Y110.402 F7800.000
G1 E2.00000 F2400.00000
G1 X95.459 Y110.818 E2.00527 F900.000
G1 X94.699 Y110.445 E2.01373
G1 X94.833 Y110.107 E2.01736
G1 X95.710 Y110.380 E2.02655
G1 E0.02655 F2400.00000
G92 E0
G1 X88.188 Y102.564 F7800.000
G1 X88.156 Y102.355 F7800.000
G1 X88.158 Y102.143 F7800.000
G1 X88.187 Y102.123 F7800.000
G1 X88.171 Y102.017 F7800.000
G1 X88.275 Y101.794 F7800.000
G1 E2.00000 F2400.00000
G1 X88.685 Y101.733 E2.00415 F900.000
G1 X88.407 Y102.408 E2.01145
G1 X88.377 Y102.767 E2.01505
G1 X88.076 Y102.817 E2.01810
G1 X87.957 Y102.548 E2.02104
G1 X87.564 Y101.495 E2.03228
G1 X87.236 Y100.381 E2.04389
G1 X87.799 Y100.363 E2.04953
G1 X87.885 Y100.727 E2.05327
G1 X88.249 Y101.724 E2.06388
G1 X86.932 Y93.255 F7800.000
G1 X87.378 Y93.313 E2.06687 F1800.000
G1 X87.298 Y93.638 E2.06910
