; generated by Slic3r 1.2.9 on 2016-02-10 at 12:40:17

; external perimeters extrusion width = 0.50mm
; perimeters extrusion width = 0.72mm
; infill extrusion width = 0.72mm
; solid infill extrusion width = 0.72mm
; top infill extrusion width = 0.72mm

M107
M104 S210 ; set temperature
G28 ; home all axes
G1 Z5 F5000 ; lift nozzle

M109 S210 ; wait for temperature to be reached
G21 ; set units to millimeters
G90 ; use absolute coordinates
M82 ; use absolute distances for extrusion
G92 E0
G1 Z0.500 F7800.000
G1 X46.012 Y56.215 F7800.000
G1 X48.187 Y55.354 E0.05319 F1800.000
G1 X49.600 Y55.207 E0.08547
G1 X150.400 Y55.207 E2.37690
G1 X152.706 Y55.604 E2.43008
G1 X154.746 Y56.750 E2.48327 F1800.000
G1 X156.285 Y58.512 E2.53646
G1 X157.146 Y60.687 E2.58964
G1 X157.293 Y62.100 E2.62193
G1 X157.293 Y137.900 E4.34504
G1 X156.896 Y140.206 E4.39823
G1 X155.750 Y142.246 E4.45142
G1 X153.988 Y143.785 E4.50461
G1 X151.813 Y144.646 E4.55779
G1 X150.400 Y144.793 E4.59008
G1 X49.600 Y144.793 E6.88150
G1 X47.294 Y144.396 E6.93469
G1 X45.254 Y143.250 E6.98788
G1 X43.715 Y141.488 E7.04106
G1 X42.854 Y139.313 E7.09425
G1 X42.707 Y137.900 E7.12653
G1 X42.707 Y62.100 E8.84965
G1 X43.104 Y59.794 E8.90284
G1 X44.250 Y57.754 E8.95602
G1 X45.955 Y56.264 E9.00751
G1 E7.00751 F2400.00000
G92 E0
G1 X51.885 Y135.615 F7800.000
G1 E2.00000 F2400.00000
G1 X51.885 Y64.385 E3.61921 F1800.000
G1 X148.115 Y64.385 E5.80673
G1 X148.115 Y135.615 E7.42594
G1 X51.960 Y135.615 E9.61176
G1 X50.993 Y136.507 F7800.000
G1 X50.993 Y63.493 E11.27155 F1800.000
G1 X149.007 Y63.493 E13.49966
G1 X149.007 Y136.507 E15.15946
G1 X51.068 Y136.507 E17.38586
G1 X50.100 Y137.400 F7800.000
G1 X50.100 Y62.600 E19.08624 F1800.000
G1 X149.900 Y62.600 E21.35493
G1 X149.900 Y137.400 E23.05532
G1 X50.175 Y137.400 E25.32231
G1 X50.350 Y136.967 F7800.000
G1 X52.435 Y134.646 F7800.000
G1 X52.854 Y135.065 E25.33579 F1800.000
G1 X54.118 Y135.065 E25.36460
G1 X52.435 Y133.382 E25.41882
G1 X52.435 Y132.117 E25.44762
G1 X55.383 Y135.065 E25.54258
G1 X56.648 Y135.065 E25.57139
G1 X52.435 Y130.852 E25.70708
G1 X52.435 Y129.587 E25.73589
G1 X57.913 Y135.065 E25.91232
G1 X59.177 Y135.065 E25.94112
G1 X52.435 Y128.322 E26.15829
G1 X52.435 Y127.058 E26.18709
G1 X60.442 Y135.065 E26.44500
G1 X61.707 Y135.065 E26.47380
G1 X52.435 Y125.793 E26.77244
G1 X52.435 Y124.528 E26.80125
G1 X62.972 Y135.065 E27.14062
G1 X64.237 Y135.065 E27.16943
G1 X52.435 Y123.263 E27.54954
G1 X52.435 Y121.999 E27.57834
G1 X65.501 Y135.065 E27.99919
G1 X66.766 Y135.065 E28.02800
G1 X52.435 Y120.734 E28.48958
G1 X52.435 Y119.469 E28.51839
G1 X68.031 Y135.065 E29.02071
G1 X69.296 Y135.065 E29.04951
G1 X52.435 Y118.204 E29.59257
G1 X52.435 Y116.939 E29.62137
G1 X70.561 Y135.065 E30.20517
G1 X71.825 Y135.065 E30.23397
G1 X52.435 Y115.675 E30.85850
G1 X52.435 Y114.410 E30.88730
G1 X73.090 Y135.065 E31.55257
G1 X74.355 Y135.065 E31.58137
G1 X52.435 Y113.145 E32.28737
G1 X52.435 Y111.880 E32.31618
G1 X75.620 Y135.065 E33.06292
G1 X76.885 Y135.065 E33.09172
G1 X52.435 Y110.615 E33.87920
G1 X52.435 Y109.351 E33.90800
G1 X78.149 Y135.065 E34.73621
G1 X79.414 Y135.065 E34.76501
G1 X52.435 Y108.086 E35.63396
G1 X52.435 Y106.821 E35.66277
G1 X80.679 Y135.065 E36.57245
G1 X81.944 Y135.065 E36.60125
G1 X52.435 Y105.556 E37.55167
G1 X52.435 Y104.291 E37.58047
G1 X83.209 Y135.065 E38.57163
G1 X84.473 Y135.065 E38.60043
G1 X52.435 Y103.027 E39.63232
G1 X52.435 Y101.762 E39.66113
G1 X85.738 Y135.065 E40.73376
G1 X87.003 Y135.065 E40.76256
G1 X52.435 Y100.497 E41.87592
G1 X52.435 Y99.232 E41.90473
G1 X88.268 Y135.065 E43.05883
G1 X89.533 Y135.065 E43.08763
G1 X52.435 Y97.967 E44.28247
G1 X52.435 Y96.703 E44.31127
G1 X90.797 Y135.065 E45.54684
G1 X92.062 Y135.065 E45.57565
G1 X52.435 Y95.438 E46.85196
G1 X52.435 Y94.173 E46.88076
G1 X93.327 Y135.065 E48.19780
G1 X94.592 Y135.065 E48.22661
G1 X52.435 Y92.908 E49.58439
G1 X52.435 Y91.643 E49.61319
G1 X95.857 Y135.065 E51.01171
G1 X97.121 Y135.065 E51.04052
G1 X52.435 Y90.379 E52.47977
G1 X52.435 Y89.114 E52.50857
G1 X98.386 Y135.065 E53.98856
G1 X99.651 Y135.065 E54.01737
G1 X52.435 Y87.849 E55.53809
G1 X52.435 Y86.584 E55.56689
G1 X100.916 Y135.065 E57.12836
G1 X102.181 Y135.065 E57.15716
G1 X52.435 Y85.319 E58.75936
G1 X52.435 Y84.055 E58.78816
G1 X103.445 Y135.065 E60.43110
G1 X104.710 Y135.065 E60.45990
G1 X52.435 Y82.790 E62.14357
G1 X52.435 Y81.525 E62.17237
G1 X105.975 Y135.065 E63.89678
G1 X107.240 Y135.065 E63.92558
G1 X52.435 Y80.260 E65.69073
G1 X52.435 Y78.995 E65.71953
G1 X108.504 Y135.065 E67.52541
G1 X109.769 Y135.065 E67.55421
G1 X52.435 Y77.731 E69.40083
G1 X52.435 Y76.466 E69.42963
G1 X111.034 Y135.065 E71.31698
G1 X112.299 Y135.065 E71.34579
G1 X52.435 Y75.201 E73.27387
G1 X52.435 Y73.936 E73.30268
G1 X113.564 Y135.065 E75.27150
G1 X114.828 Y135.065 E75.30031
G1 X52.435 Y72.672 E77.30986
G1 X52.435 Y71.407 E77.33867
G1 X116.093 Y135.065 E79.38896
G1 X117.358 Y135.065 E79.41777
G1 X52.435 Y70.142 E81.50880
G1 X52.435 Y68.877 E81.53760
G1 X118.623 Y135.065 E83.66937
G1 X119.888 Y135.065 E83.69818
G1 X52.435 Y67.612 E85.87068
G1 X52.435 Y66.348 E85.89948
G1 X121.152 Y135.065 E88.11272
G1 X122.417 Y135.065 E88.14153
G1 X52.435 Y65.083 E90.39550
G1 X53.552 Y64.935 E90.42116
G1 X123.682 Y135.065 E92.67990
G1 X124.947 Y135.065 E92.70871
G1 X54.816 Y64.935 E94.96745
G1 X56.081 Y64.935 E94.99625
G1 X126.212 Y135.065 E97.25499
G1 X127.476 Y135.065 E97.28380
G1 X57.346 Y64.935 E99.54254
G1 X58.611 Y64.935 E99.57134
G1 X128.741 Y135.065 E101.83009
G1 X130.006 Y135.065 E101.85889
G1 X59.876 Y64.935 E104.11763
G1 X61.140 Y64.935 E104.14644
G1 X131.271 Y135.065 E106.40518
G1 X132.536 Y135.065 E106.43398
G1 X62.405 Y64.935 E108.69272
G1 X63.670 Y64.935 E108.72153
G1 X133.800 Y135.065 E110.98027
G1 X135.065 Y135.065 E111.00907
G1 X64.935 Y64.935 E113.26781
G1 X66.200 Y64.935 E113.29662
G1 X136.330 Y135.065 E115.55536
G1 X137.595 Y135.065 E115.58416
G1 X67.464 Y64.935 E117.84290
G1 X68.729 Y64.935 E117.87171
G1 X138.860 Y135.065 E120.13045
G1 X140.124 Y135.065 E120.15926
G1 X69.994 Y64.935 E122.41800
G1 X71.259 Y64.935 E122.44680
G1 X141.389 Y135.065 E124.70554
G1 X142.654 Y135.065 E124.73435
G1 X72.524 Y64.935 E126.99309
G1 X73.788 Y64.935 E127.02189
G1 X143.919 Y135.065 E129.28063
G1 X145.184 Y135.065 E129.30944
G1 X75.053 Y64.935 E131.56818
G1 X76.318 Y64.935 E131.59698
G1 X146.448 Y135.065 E133.85572
G1 X147.565 Y134.917 E133.88138
G1 X77.583 Y64.935 E136.13536
G1 X78.848 Y64.935 E136.16416
G1 X147.565 Y133.652 E138.37740
G1 X147.565 Y132.388 E138.40621
G1 X80.112 Y64.935 E140.57871
G1 X81.377 Y64.935 E140.60752
G1 X147.565 Y131.123 E142.73928
G1 X147.565 Y129.858 E142.76809
G1 X82.642 Y64.935 E144.85912
G1 X83.907 Y64.935 E144.88792
G1 X147.565 Y128.593 E146.93822
G1 X147.565 Y127.328 E146.96702
G1 X85.172 Y64.935 E148.97658
G1 X86.436 Y64.935 E149.00539
G1 X147.565 Y126.064 E150.97421
G1 X147.565 Y124.799 E151.00302
G1 X87.701 Y64.935 E152.93110
G1 X88.966 Y64.935 E152.95991
G1 X147.565 Y123.534 E154.84726
G1 X147.565 Y122.269 E154.87606
G1 X90.231 Y64.935 E156.72268
G1 X91.495 Y64.935 E156.75148
G1 X147.565 Y121.005 E158.55736
G1 X147.565 Y119.740 E158.58617
G1 X92.760 Y64.935 E160.35131
G1 X94.025 Y64.935 E160.38011
G1 X147.565 Y118.475 E162.10452
G1 X147.565 Y117.210 E162.13332
G1 X95.290 Y64.935 E163.81699
G1 X96.555 Y64.935 E163.84580
G1 X147.565 Y115.945 E165.48873
G1 X147.565 Y114.681 E165.51754
G1 X97.819 Y64.935 E167.11973
G1 X99.084 Y64.935 E167.14854
G1 X147.565 Y113.416 E168.71000
G1 X147.565 Y112.151 E168.73880
G1 X100.349 Y64.935 E170.25953
G1 X101.614 Y64.935 E170.28833
G1 X147.565 Y110.886 E171.76832
G1 X147.565 Y109.621 E171.79713
G1 X102.879 Y64.935 E173.23638
G1 X104.143 Y64.935 E173.26518
G1 X147.565 Y108.357 E174.66370
G1 X147.565 Y107.092 E174.69251
G1 X105.408 Y64.935 E176.05029
G1 X106.673 Y64.935 E176.07909
G1 X147.565 Y105.827 E177.39613
G1 X147.565 Y104.562 E177.42494
G1 X107.938 Y64.935 E178.70125
G1 X109.203 Y64.935 E178.73005
G1 X147.565 Y103.297 E179.96562
G1 X147.565 Y102.033 E179.99443
G1 X110.467 Y64.935 E181.18926
G1 X111.732 Y64.935 E181.21807
G1 X147.565 Y100.768 E182.37217
G1 X147.565 Y99.503 E182.40097
G1 X112.997 Y64.935 E183.51434
G1 X114.262 Y64.935 E183.54314
G1 X147.565 Y98.238 E184.61577
G1 X147.565 Y96.973 E184.64457
G1 X115.527 Y64.935 E185.67646
G1 X116.791 Y64.935 E185.70527
G1 X147.565 Y95.709 E186.69642
G1 X147.565 Y94.444 E186.72523
G1 X118.056 Y64.935 E187.67565
G1 X119.321 Y64.935 E187.70445
G1 X147.565 Y93.179 E188.61414
G1 X147.565 Y91.914 E188.64294
G1 X120.586 Y64.935 E189.51189
G1 X121.851 Y64.935 E189.54069
G1 X147.565 Y90.649 E190.36890
G1 X147.565 Y89.385 E190.39771
G1 X123.115 Y64.935 E191.18518
G1 X124.380 Y64.935 E191.21398
G1 X147.565 Y88.120 E191.96072
G1 X147.565 Y86.855 E191.98953
G1 X125.645 Y64.935 E192.69553
G1 X126.910 Y64.935 E192.72433
G1 X147.565 Y85.590 E193.38960
G1 X147.565 Y84.325 E193.41840
G1 X128.175 Y64.935 E194.04293
G1 X129.439 Y64.935 E194.07174
G1 X147.565 Y83.061 E194.65553
G1 X147.565 Y81.796 E194.68434
G1 X130.704 Y64.935 E195.22739
G1 X131.969 Y64.935 E195.25620
G1 X147.565 Y80.531 E195.75852
G1 X147.565 Y79.266 E195.78732
G1 X133.234 Y64.935 E196.24891
G1 X134.499 Y64.935 E196.27771
G1 X147.565 Y78.001 E196.69856
G1 X147.565 Y76.737 E196.72737
G1 X135.763 Y64.935 E197.10748
G1 X137.028 Y64.935 E197.13628
G1 X147.565 Y75.472 E197.47566
G1 X147.565 Y74.207 E197.50446
G1 X138.293 Y64.935 E197.80310
G1 X139.558 Y64.935 E197.83191
G1 X147.565 Y72.942 E198.08981
G1 X147.565 Y71.678 E198.11862
G1 X140.822 Y64.935 E198.33578
G1 X142.087 Y64.935 E198.36459
G1 X147.565 Y70.413 E198.54102
G1 X147.565 Y69.148 E198.56983
G1 X143.352 Y64.935 E198.70552
G1 X144.617 Y64.935 E198.73433
G1 X147.565 Y67.883 E198.82928
G1 X147.565 Y66.618 E198.85809
G1 X145.882 Y64.935 E198.91231
G1 X147.146 Y64.935 E198.94112
G1 X147.565 Y65.354 E198.95460
M104 S200 ; set temperature
G1 Z0.800 F7800.000
G1 X51.050 Y136.450 F7800.000
G1 X51.050 Y63.550 E199.68361 F3600.000
G1 X148.950 Y63.550 E200.66262
G1 X148.950 Y136.450 E201.39163
G1 X51.125 Y136.450 E202.36989
G1 X50.395 Y137.105 F7800.000
G1 X50.395 Y62.895 E203.11199 F3600.000
G1 X149.605 Y62.895 E204.10409
G1 X149.605 Y137.105 E204.84619
G1 X50.470 Y137.105 E205.83753
G1 X49.850 Y137.650 F7800.000
G1 X49.850 Y62.350 E206.33871 F1800.000
G1 X150.150 Y62.350 E207.00629
G1 X150.150 Y137.650 E207.50747
G1 X49.925 Y137.650 E208.17454
G1 X50.100 Y137.217 F7800.000
G1 X51.765 Y63.947 F7800.000
G1 X51.447 Y64.265 E208.17904 F1200.000
G1 X51.447 Y65.191 E208.18831
G1 X52.691 Y63.947 E208.20591
G1 X53.617 Y63.947 E208.21518
G1 X51.447 Y66.117 E208.24589
G1 X51.447 Y67.043 E208.25516
G1 X54.543 Y63.947 E208.29898
G1 X55.470 Y63.947 E208.30824
G1 X51.447 Y67.970 E208.36517
G1 X51.447 Y68.896 E208.37444
G1 X56.396 Y63.947 E208.44448
G1 X57.322 Y63.947 E208.45374
G1 X51.447 Y69.822 E208.53689
G1 X51.447 Y70.748 E208.54616
G1 X58.248 Y63.947 E208.64241
G1 X59.175 Y63.947 E208.65168
G1 X51.447 Y71.675 E208.76104
G1 X51.447 Y72.601 E208.77031
G1 X60.101 Y63.947 E208.89277
G1 X61.027 Y63.947 E208.90204
G1 X51.447 Y73.527 E209.03762
G1 X51.447 Y74.453 E209.04689
G1 X61.953 Y63.947 E209.19557
G1 X62.880 Y63.947 E209.20484
G1 X51.447 Y75.380 E209.36664
G1 X51.447 Y76.306 E209.37590
G1 X63.806 Y63.947 E209.55081
G1 X64.732 Y63.947 E209.56007
G1 X51.447 Y77.232 E209.74808
G1 X51.447 Y78.158 E209.75735
G1 X65.658 Y63.947 E209.95847
G1 X66.584 Y63.947 E209.96774
G1 X51.447 Y79.084 E210.18196
G1 X51.447 Y80.011 E210.19123
G1 X67.511 Y63.947 E210.41857
G1 X68.437 Y63.947 E210.42784
G1 X51.447 Y80.937 E210.66828
G1 X51.447 Y81.863 E210.67755
G1 X69.363 Y63.947 E210.93110
G1 X70.289 Y63.947 E210.94037
G1 X51.447 Y82.789 E211.20702
G1 X51.447 Y83.716 E211.21629
G1 X71.216 Y63.947 E211.49606
G1 X72.142 Y63.947 E211.50533
G1 X51.447 Y84.642 E211.79820
G1 X51.447 Y85.568 E211.80747
G1 X73.068 Y63.947 E212.11346
G1 X73.994 Y63.947 E212.12273
G1 X51.447 Y86.494 E212.44182
G1 X51.447 Y87.421 E212.45109
G1 X74.921 Y63.947 E212.78329
G1 X75.847 Y63.947 E212.79255
G1 X51.447 Y88.347 E213.13786
G1 X51.447 Y89.273 E213.14713
G1 X76.773 Y63.947 E213.50555
G1 X77.699 Y63.947 E213.51482
G1 X51.447 Y90.199 E213.88634
G1 X51.447 Y91.126 E213.89561
G1 X78.626 Y63.947 E214.28024
G1 X79.552 Y63.947 E214.28951
G1 X51.447 Y92.052 E214.68725
G1 X51.447 Y92.978 E214.69652
G1 X80.478 Y63.947 E215.10737
G1 X81.404 Y63.947 E215.11664
G1 X51.447 Y93.904 E215.54060
G1 X51.447 Y94.831 E215.54986
G1 X82.331 Y63.947 E215.98693
G1 X83.257 Y63.947 E215.99620
G1 X51.447 Y95.757 E216.44637
G1 X51.447 Y96.683 E216.45564
G1 X84.183 Y63.947 E216.91892
G1 X85.109 Y63.947 E216.92819
G1 X51.447 Y97.609 E217.40458
G1 X51.447 Y98.536 E217.41385
G1 X86.036 Y63.947 E217.90335
G1 X86.962 Y63.947 E217.91262
G1 X51.447 Y99.462 E218.41522
G1 X51.447 Y100.388 E218.42449
G1 X87.888 Y63.947 E218.94021
G1 X88.814 Y63.947 E218.94948
G1 X51.447 Y101.314 E219.47830
G1 X51.447 Y102.241 E219.48757
G1 X89.741 Y63.947 E220.02950
G1 X90.667 Y63.947 E220.03877
G1 X51.447 Y103.167 E220.59381
G1 X51.447 Y104.093 E220.60308
G1 X91.593 Y63.947 E221.17123
G1 X92.519 Y63.947 E221.18049
G1 X51.447 Y105.019 E221.76175
G1 X51.447 Y105.946 E221.77102
G1 X93.446 Y63.947 E222.36538
G1 X94.372 Y63.947 E222.37465
G1 X51.447 Y106.872 E222.98212
G1 X51.447 Y107.798 E222.99139
G1 X95.298 Y63.947 E223.61197
G1 X96.224 Y63.947 E223.62124
G1 X51.447 Y108.724 E224.25493
G1 X51.447 Y109.651 E224.26420
G1 X97.151 Y63.947 E224.91100
G1 X98.077 Y63.947 E224.92027
G1 X51.447 Y110.577 E225.58017
G1 X51.447 Y111.503 E225.58944
G1 X99.003 Y63.947 E226.26245
G1 X99.929 Y63.947 E226.27172
G1 X51.447 Y112.429 E226.95784
G1 X51.447 Y113.356 E226.96711
G1 X100.856 Y63.947 E227.66634
G1 X101.782 Y63.947 E227.67561
G1 X51.447 Y114.282 E228.38795
G1 X51.447 Y115.208 E228.39722
G1 X102.708 Y63.947 E229.12267
G1 X103.634 Y63.947 E229.13193
G1 X51.447 Y116.134 E229.87049
G1 X51.447 Y117.061 E229.87976
G1 X104.561 Y63.947 E230.63142
G1 X105.487 Y63.947 E230.64069
G1 X51.447 Y117.987 E231.40546
G1 X51.447 Y118.913 E231.41473
G1 X106.413 Y63.947 E232.19261
G1 X107.339 Y63.947 E232.20188
G1 X51.447 Y119.839 E232.99287
G1 X51.447 Y120.766 E233.00213
G1 X108.266 Y63.947 E233.80623
G1 X109.192 Y63.947 E233.81550
G1 X51.447 Y121.692 E234.63270
G1 X51.447 Y122.618 E234.64197
G1 X110.118 Y63.947 E235.47228
G1 X111.044 Y63.947 E235.48155
G1 X51.447 Y123.544 E236.32497
G1 X51.447 Y124.471 E236.33424
G1 X111.971 Y63.947 E237.19077
G1 X112.897 Y63.947 E237.20004
G1 X51.447 Y125.397 E238.06968
G1 X51.447 Y126.323 E238.07894
G1 X113.823 Y63.947 E238.96169
G1 X114.749 Y63.947 E238.97096
G1 X51.447 Y127.249 E239.86681
G1 X51.447 Y128.176 E239.87608
G1 X115.676 Y63.947 E240.78504
G1 X116.602 Y63.947 E240.79431
G1 X51.447 Y129.102 E241.71638
G1 X51.447 Y130.028 E241.72565
G1 X117.528 Y63.947 E242.66083
G1 X118.454 Y63.947 E242.67010
G1 X51.447 Y130.954 E243.61838
G1 X51.447 Y131.881 E243.62765
G1 X119.381 Y63.947 E244.58905
G1 X120.307 Y63.947 E244.59831
G1 X51.447 Y132.807 E245.57282
G1 X51.447 Y133.733 E245.58209
G1 X121.233 Y63.947 E246.56970
G1 X122.159 Y63.947 E246.57897
G1 X51.447 Y134.659 E247.57968
G1 X51.447 Y135.585 E247.58895
G1 X123.085 Y63.947 E248.60278
G1 X124.012 Y63.947 E248.61205
G1 X51.906 Y136.053 E249.63249
G1 X52.832 Y136.053 E249.64176
G1 X124.938 Y63.947 E250.66221
G1 X125.864 Y63.947 E250.67147
G1 X53.758 Y136.053 E251.69192
G1 X54.684 Y136.053 E251.70119
G1 X126.790 Y63.947 E252.72163
G1 X127.717 Y63.947 E252.73090
G1 X55.611 Y136.053 E253.75134
G1 X56.537 Y136.053 E253.76061
G1 X128.643 Y63.947 E254.78105
G1 X129.569 Y63.947 E254.79032
G1 X57.463 Y136.053 E255.81077
G1 X58.389 Y136.053 E255.82003
G1 X130.495 Y63.947 E256.84048
G1 X131.422 Y63.947 E256.84975
G1 X59.316 Y136.053 E257.87019
G1 X60.242 Y136.053 E257.87946
G1 X132.348 Y63.947 E258.89990
G1 X133.274 Y63.947 E258.90917
G1 X61.168 Y136.053 E259.92961
G1 X62.094 Y136.053 E259.93888
G1 X134.200 Y63.947 E260.95933
G1 X135.127 Y63.947 E260.96860
G1 X63.021 Y136.053 E261.98904
G1 X63.947 Y136.053 E261.99831
